X:1
T:Niederbayrische Mazurka 
F:http://simonwascher.info/
Z:abc transcription Simon Wascher
M:3/4
L:1/8
K:G
dcB2B2 | cBA2A2 | FGABc^c | deded2 |
dcB2B2 | cBA2A2 | dedcBA | G2G4 :|
K:D
|:\
f2e2d2 | c2B4 | A2c2e2 | A2d2f2 |
f2e2d2 | c2B4 | A2c2e2 | d6 :|
%%wordsfont Times-Italic 11pt
W:aus Simon Waschers TradArchiv
